X:18
T:reel
R:reel
C:Henrik Norbeck
H:July 2014
M:C|
L:1/8
K:A
GAAG Afec | B2cB AFEF | GAAG Afec | ecBc A3E |
GAAG Afec | B2cB AFE2 | a2ga fecf | ecBc A3E ||
effe fafe | BccB cBA2 | effe fafe | dfec B3c |
effe fafe | BccB AFE2 | a2ga fecf | ecBc A3E ||

